svg/ricky/sitting/emotion/dozing.svg

<?xml version="1.0" encoding="UTF-8"?>
<svg width="500px" height="600px" viewBox="0 0 500 600" version="1.1" xmlns="http://www.w3.org/2000/svg" xmlns:xlink="http://www.w3.org/1999/xlink">
    <title>dozing</title>
    <defs>
        <polygon id="path-1" points="0 0.454 182.161262 0.454 182.161262 198.107401 0 198.107401"></polygon>
        <polygon id="path-3" points="0 0.150735927 15.0492747 0.150735927 15.0492747 15 0 15"></polygon>
        <polygon id="path-5" points="0.618595407 0.51 39.225 0.51 39.225 39.5072798 0.618595407 39.5072798"></polygon>
    </defs>
    <g id="dozing" stroke="none" stroke-width="1" fill="none" fill-rule="evenodd">
        <g transform="translate(169.000000, 58.000000)">
            <g id="face" transform="translate(0.000000, 0.546000)">
                <mask id="mask-2" fill="white">
                    <use xlink:href="#path-1"></use>
                </mask>
                <g id="Clip-4"></g>
                <path d="M172.4954,104.5349 C172.2264,106.0479 171.9274,107.5579 171.6154,109.0679 C171.5464,109.3019 171.4964,109.5399 171.4654,109.7829 C170.8124,112.8959 170.1024,116.0029 169.4094,119.0969 C169.0254,120.8039 168.5464,123.0969 166.9174,124.0889 C165.9884,124.6539 163.3324,124.4499 163.5584,122.8539 C163.6084,122.5109 163.4934,122.2269 163.3074,122.0129 C163.4394,113.2759 162.1384,104.6229 160.4864,95.9929 C161.0544,95.9069 161.5734,95.5839 161.9294,95.0489 C161.9984,94.9429 162.0684,94.8389 162.1414,94.7359 C162.1524,94.7209 162.1864,94.6759 162.2184,94.6339 C162.2664,94.5759 162.3244,94.5049 162.3404,94.4859 C162.4054,94.4099 162.4734,94.3349 162.5404,94.2599 C162.8644,93.9039 163.2244,93.5969 163.5814,93.2759 C163.5864,93.2709 163.5854,93.2709 163.5894,93.2669 C163.5914,93.2659 163.5924,93.2659 163.5944,93.2639 C163.6764,93.2059 163.7574,93.1459 163.8404,93.0899 C164.0264,92.9609 164.2184,92.8389 164.4124,92.7219 C164.6074,92.6049 164.8064,92.4949 165.0084,92.3909 C165.1194,92.3349 165.2334,92.2789 165.3484,92.2249 C165.3924,92.2039 165.4384,92.1819 165.4844,92.1629 C165.6194,92.1019 165.5764,92.1199 165.3544,92.2149 C165.4444,92.1019 165.8654,92.0199 165.9934,91.9769 C166.2084,91.9049 166.4264,91.8399 166.6444,91.7819 C166.8644,91.7229 167.0854,91.6729 167.3084,91.6299 C167.4074,91.6099 167.5074,91.5939 167.6064,91.5759 C167.6034,91.5749 167.5984,91.5759 167.5974,91.5739 C167.5984,91.5749 167.6044,91.5749 167.6074,91.5759 C167.6314,91.5719 167.6554,91.5669 167.6804,91.5629 C167.9674,91.5139 167.7134,91.5819 167.6244,91.5799 C167.6884,91.5879 167.8744,91.5699 168.0454,91.5509 C168.6464,91.7489 169.2174,92.0359 169.7084,92.4339 C173.2704,95.3349 173.2234,100.4239 172.4954,104.5349 M161.2824,124.2969 C161.2004,125.8999 161.0474,127.5069 160.8574,129.1099 C160.6394,129.7179 160.5664,130.3769 160.6204,131.0249 C160.3784,132.6879 160.0414,134.3349 159.6644,135.9719 C158.3244,140.1539 156.4064,144.1129 153.9714,147.7609 C153.9634,147.7519 153.9554,147.7429 153.9464,147.7339 C151.0924,150.9959 147.7294,153.8309 144.2554,156.4329 C137.7354,161.3179 130.9764,165.9069 124.2104,170.4389 C120.2014,173.1239 116.1634,175.7629 112.0984,178.3589 C111.8864,178.4949 111.7574,178.6709 111.6894,178.8589 C110.3644,179.6869 108.9974,180.4379 107.5414,181.0269 C102.1044,183.2239 96.3294,182.2229 90.9914,180.2489 C85.9744,178.3929 81.1674,175.8689 76.4034,173.4479 C67.8814,169.1179 59.3994,164.2839 52.4834,157.5979 C45.3164,150.6689 40.7254,141.9399 39.1754,132.0819 C37.5674,121.8619 38.9214,111.3819 40.3214,101.2219 C40.9894,96.3799 41.6924,91.5179 42.2204,86.6419 C47.0184,89.1969 52.1334,89.7649 55.9274,83.8619 C57.7014,81.1019 58.8524,78.0019 59.5444,74.7689 C62.2884,76.5689 65.3014,77.5269 68.6174,76.6229 C71.8364,75.7459 74.3914,73.2299 75.8494,70.3059 C77.1094,67.7789 76.8534,64.4989 78.1584,62.1129 C81.2194,63.8319 84.6014,64.9109 88.0674,65.0389 C96.0064,65.3319 100.3844,59.3059 102.8564,52.5159 C106.7644,54.5589 111.7004,54.5839 115.5464,52.3169 C115.7964,52.9449 116.0834,53.5579 116.4064,54.1559 C117.8984,58.6389 121.8504,62.1959 126.4204,63.5419 C129.4094,64.4219 132.5624,64.2709 135.4054,62.9849 C135.4704,62.9559 135.5384,62.9189 135.6024,62.8879 C135.5604,68.8059 136.8214,74.5629 141.2254,79.1479 C145.1594,83.2439 150.8264,84.8759 156.0274,83.8139 C156.0434,83.8949 156.0584,83.9769 156.0744,84.0579 C156.0784,84.1839 156.0854,84.3089 156.0904,84.4349 C156.1184,85.3179 156.3294,86.1559 156.6544,86.9399 C157.0134,88.7059 157.3734,90.4719 157.7284,92.2349 C159.8494,102.7669 161.8404,113.5059 161.2824,124.2969 M102.5164,191.1329 C100.9614,193.6609 98.6394,196.3529 95.3944,196.0899 C92.2724,195.8359 90.5794,192.7119 89.3454,190.1259 C89.4204,189.9919 89.4734,189.8389 89.4734,189.6469 L89.4734,181.8069 C92.8144,183.1189 96.2744,184.1039 99.8714,184.2859 C100.7214,184.3289 101.5474,184.2939 102.3634,184.2239 L102.3634,190.6399 C102.3634,190.8209 102.4284,190.9839 102.5164,191.1329 M36.5164,123.3419 C36.4694,123.3649 36.4214,123.3899 36.3844,123.4309 C36.2994,123.5239 36.2274,123.6529 36.2374,123.7839 C36.2404,123.8219 36.2364,123.8589 36.2344,123.8969 C36.2274,123.9329 36.2174,123.9689 36.2054,124.0039 C36.1904,124.0339 36.1744,124.0619 36.1554,124.0899 C36.1174,124.1289 36.0794,124.1679 36.0414,124.2059 C35.9614,124.2879 35.9154,124.4009 35.9034,124.5159 C35.8994,124.5159 35.8954,124.5149 35.8914,124.5139 C35.6334,124.3789 35.3134,124.3529 34.9814,124.5319 C33.1074,125.5439 31.2874,123.8279 30.1454,122.4669 C28.8014,120.8639 27.8764,118.8899 26.9274,117.0419 C24.9464,113.1829 23.2244,108.8799 23.8314,104.4589 C24.3064,100.9989 26.3014,97.2649 29.9334,96.3759 C32.8944,95.6509 36.6424,96.8909 37.5944,100.0199 C37.7194,100.4329 38.0244,100.6349 38.3564,100.6899 C37.2914,108.2229 36.3864,115.7639 36.5164,123.3419 M99.1854,3.8299 C97.7154,3.2469 96.1894,2.8029 94.6214,2.5069 C96.2194,2.6429 97.7664,3.1049 99.1854,3.8299 M182.0224,100.6849 C181.8714,99.5389 181.5484,98.4689 181.2444,97.3579 C180.8494,95.9199 181.1414,94.7439 181.4614,93.3279 C182.5074,88.6999 181.0174,83.7939 177.5944,80.5159 C180.6794,73.2679 178.8774,64.3449 173.0264,58.9869 C173.0784,57.6219 172.6664,56.4169 172.0164,55.3119 C171.5914,54.2519 170.9024,53.4059 170.0424,52.7819 C169.7534,52.4779 169.4604,52.1789 169.1624,51.8859 C169.0104,51.7369 168.8494,51.5889 168.6844,51.4379 C168.3384,48.5569 167.9754,45.6199 167.3024,42.8389 C167.2684,42.4049 167.2264,41.9719 167.1684,41.5389 C166.7264,38.2789 165.6724,34.4019 163.2754,31.9979 C161.6414,30.3569 158.9924,29.6469 156.9814,30.7429 C155.9234,28.1849 154.4304,25.7579 152.5494,23.7109 C151.5724,22.1759 150.3154,20.8309 148.6764,19.8189 C146.3264,18.3689 143.5994,18.2229 141.1574,18.9829 C140.6734,15.4699 138.3494,12.2779 134.8974,11.0209 C130.9134,9.5689 126.2504,11.2869 123.8144,14.6509 C121.5564,11.7759 118.9894,8.9399 115.4384,7.7799 C112.6974,6.8859 109.4354,7.1519 107.1324,8.9059 C107.0294,8.8079 106.9294,8.7039 106.8254,8.6099 C106.7504,8.5409 106.6694,8.4829 106.5934,8.4159 C104.1254,3.8709 99.3784,0.6849 94.1234,0.4659 C88.4864,0.2289 83.2194,3.5289 80.5494,8.3739 C76.7904,4.8589 70.7384,4.1579 66.2094,6.6229 C65.6164,6.9459 65.0604,7.3319 64.5384,7.7589 C63.9554,8.2339 63.4354,8.9799 62.7664,9.3249 C61.8284,9.8079 60.9344,9.0259 60.0924,8.6419 C59.3074,8.2849 58.4884,8.0099 57.6394,7.8499 C54.4174,7.2469 51.0174,8.0099 48.4664,10.0969 C46.2924,11.8749 44.9264,14.4959 44.5574,17.2559 C43.7054,18.3189 42.9844,19.4629 42.3834,20.6739 C38.1814,16.4309 30.0704,16.9059 26.9334,22.3049 C26.0244,23.8679 25.5994,25.6609 24.6974,27.2269 C24.3004,27.9179 23.8044,28.5729 23.0814,28.9489 C21.8834,29.5729 20.4454,29.3319 19.1514,29.2949 C15.1794,29.1789 12.1464,31.5749 10.8754,35.2979 C9.6234,38.9619 10.6844,42.6849 12.3674,46.0489 C12.6914,46.8599 13.0784,47.6459 13.5354,48.3999 C7.8164,50.4889 5.3274,58.4129 8.2564,63.6109 C8.2984,64.0829 8.3624,64.5519 8.4524,65.0149 C3.5584,66.7519 -0.1916,71.5249 0.0074,76.8859 C0.2084,82.3099 4.3154,86.9599 9.4424,88.2889 C4.5534,94.0439 6.4624,102.9229 10.1144,108.9789 C11.3124,110.9659 12.8254,112.6549 14.3194,114.4179 C16.1264,116.5509 17.0294,118.7769 17.7294,121.4559 C18.8914,125.9019 20.9634,129.7799 24.5654,132.7319 C28.3924,135.8689 33.2374,137.6469 38.2054,137.4259 C38.2454,137.4239 38.2724,137.4049 38.3094,137.3999 C39.9724,143.6499 42.8174,149.5049 47.0254,154.6379 C53.2304,162.2059 61.5794,167.7299 70.0884,172.3859 C74.4804,174.7879 78.9764,177.0039 83.4934,179.1609 C84.8324,179.7999 86.1904,180.4299 87.5684,181.0219 C87.5094,181.1459 87.4734,181.2899 87.4734,181.4579 L87.4734,189.2769 C87.2054,189.5649 87.0754,189.9859 87.2854,190.4329 C88.9074,193.8799 91.1404,197.7909 95.3944,198.0899 C99.5694,198.3829 102.6104,194.9449 104.5244,191.6759 C104.7904,191.2229 104.6524,190.7959 104.3634,190.5139 L104.3634,183.9459 C107.8284,183.2749 111.0144,181.6999 114.0424,179.6859 C113.9924,179.6509 113.9534,179.6029 113.9054,179.5649 C120.9494,175.0529 127.9134,170.4159 134.7814,165.6389 C141.0654,161.2679 147.6044,156.9679 153.0984,151.5959 C153.4864,151.2159 153.8414,150.8029 154.2154,150.4089 C154.4564,150.3649 154.6884,150.2359 154.8644,149.9889 C155.0944,149.6669 155.3114,149.3369 155.5334,149.0089 C155.5574,148.9809 155.5844,148.9569 155.6084,148.9299 C155.6024,148.9269 155.5984,148.9249 155.5934,148.9219 C157.8504,145.5669 159.6804,141.9399 161.0434,138.1349 C161.0974,138.1569 161.1534,138.1679 161.2064,138.1909 C161.3604,137.5979 161.4904,137.0009 161.6264,136.4039 C161.6794,136.2379 161.7374,136.0739 161.7884,135.9079 C161.8254,135.7889 161.8234,135.6829 161.8204,135.5779 C161.8264,135.5469 161.8354,135.5149 161.8424,135.4839 C161.9394,135.5259 162.0374,135.5679 162.1574,135.5799 C166.3064,135.9779 170.1364,134.0479 173.0914,131.2559 C176.1854,128.3299 179.1064,124.1069 179.6784,119.8079 C179.8114,118.7979 179.7934,117.7699 179.5534,116.7749 C179.2704,115.6029 178.3354,114.5099 178.6454,113.2689 C178.9004,112.2509 179.7284,111.3509 180.2244,110.4409 C180.7874,109.4089 181.2344,108.3019 181.5564,107.1719 C182.1524,105.0729 182.3084,102.8469 182.0224,100.6849" id="Fill-3" fill="#231F20" mask="url(#mask-2)"></path>
            </g>
            <g id="eyes" transform="translate(61.164541, 83.828107)" fill="#231F20">
                <path d="M13.740059,0.899292994 C8.48605903,2.21929299 3.70105903,5.19129299 0.206059027,9.33229299 C-0.472940973,10.137293 0.686059027,11.308293 1.37105903,10.497293 C4.69705903,6.55529299 9.17405903,3.74529299 14.177059,2.48729299 C15.205059,2.22929299 14.769059,0.640292994 13.740059,0.899292994" id="Fill-8"></path>
                <path d="M76.789859,4.56429299 C72.717859,1.05629299 67.256859,0.352292994 62.085859,0.00229299429 C61.027859,-0.0697070057 61.031859,1.57729299 62.085859,1.64829299 C66.773859,1.96629299 71.920859,2.53729299 75.625859,5.72829299 C76.424859,6.41729299 77.594859,5.25629299 76.789859,4.56429299" id="Fill-10"></path>
                <path d="M57.771259,18.740093 C59.068259,23.103093 63.422259,26.384093 68.027259,26.141093 C72.607259,25.900093 76.694259,22.308093 77.532259,17.803093 C77.765259,16.544093 75.838259,16.005093 75.603259,17.270093 C74.931259,20.883093 71.769259,23.940093 68.027259,24.141093 C64.309259,24.342093 60.753259,21.755093 59.700259,18.209093 C59.334259,16.977093 57.404259,17.502093 57.771259,18.740093" id="Fill-14"></path>
                <path d="M11.821059,29.522293 C16.030059,29.162293 19.309059,25.470293 20.022059,21.446293 C20.245059,20.187293 18.318059,19.647293 18.093059,20.914293 C17.547059,24.000293 15.251059,27.059293 11.974059,27.504293 C9.21205903,27.879293 5.92505903,25.943293 5.55105903,23.029293 C5.48205903,22.489293 5.14105903,22.035293 4.55105903,22.029293 C4.06405903,22.024293 3.48305903,22.494293 3.55105903,23.029293 C4.05505903,26.967293 7.88305903,29.859293 11.821059,29.522293" id="Fill-16"></path>
            </g>
            <path d="M109.9221,129.1102 C109.8371,128.5772 109.1711,128.2802 108.6921,128.4122 C108.1231,128.5682 107.9081,129.1072 107.9931,129.6422 C108.3921,132.1482 106.3581,134.8442 103.8581,135.2002 C101.2331,135.5742 98.5341,133.3232 98.3521,130.7012 C98.2621,129.4232 96.2621,129.4142 96.3521,130.7012 C96.5591,133.6612 98.7461,136.2382 101.6101,137.0072 C104.5001,137.7842 107.4291,136.3602 108.9751,133.8752 C109.8671,132.4382 110.1871,130.7732 109.9221,129.1102" id="nose" fill="#231F20"></path>
            <path d="M107.8196,151.6376 C102.3976,149.8656 96.4606,149.9236 91.0776,151.8136 C89.8706,152.2366 90.3896,154.1686 91.6086,153.7416 C96.6846,151.9596 102.1736,151.8946 107.2886,153.5656 C108.5136,153.9666 109.0396,152.0356 107.8196,151.6376" id="mouth" fill="#231F20"></path>
            <g id="zs" transform="translate(152.000000, 106.000000)">
                <g id="Group-3" transform="translate(0.000000, 54.490500)">
                    <mask id="mask-4" fill="white">
                        <use xlink:href="#path-3"></use>
                    </mask>
                    <g id="Clip-2"></g>
                    <path d="M13.8317,10.3049 C12.0407,10.9319 10.2497,11.5609 8.4587,12.1889 C9.2397,10.7359 10.0197,9.2819 10.8007,7.8279 C11.4177,6.6799 12.0347,5.5329 12.6517,4.3849 C13.1737,3.4119 13.9037,2.2559 13.2687,1.1539 C12.1617,-0.7661 9.3957,0.5719 7.8807,1.0649 C5.4837,1.8429 3.0897,2.6209 0.6927,3.4009 C-0.5253,3.7969 -0.0043,5.7289 1.2257,5.3279 C3.2557,4.6689 5.2847,4.0089 7.3157,3.3499 C8.2907,3.0329 9.2637,2.7129 10.2387,2.3989 C10.5427,2.3009 10.8567,2.1859 11.1777,2.1599 C11.2437,2.1549 11.4437,2.1269 11.5177,2.1679 C11.5097,2.1799 11.5027,2.1909 11.4977,2.2229 C11.4327,2.6399 11.0587,3.1269 10.8627,3.4909 C10.5957,3.9879 10.3277,4.4849 10.0607,4.9829 L8.5807,7.7379 C7.5527,9.6509 6.5247,11.5649 5.4967,13.4769 C5.1117,14.1939 5.7607,15.2499 6.6267,14.9469 C9.2057,14.0409 11.7847,13.1369 14.3637,12.2329 C15.5707,11.8099 15.0517,9.8769 13.8317,10.3049" id="Fill-1" fill="#231F20" mask="url(#mask-4)"></path>
                </g>
                <path d="M39.3317,54.894 C36.4337,56.102 33.5347,57.309 30.6357,58.517 C31.1517,53.805 31.1437,49.072 30.5567,44.356 C30.4667,43.625 29.7717,43.082 29.0527,43.493 C25.9447,45.264 22.8367,47.036 19.7287,48.807 C18.6107,49.444 19.6167,51.172 20.7377,50.534 C23.4027,49.014 26.0677,47.497 28.7327,45.977 C29.1837,50.583 29.1177,55.235 28.4807,59.823 C28.3917,60.467 28.9147,61.383 29.7107,61.052 C33.0957,59.643 36.4797,58.233 39.8637,56.823 C41.0347,56.334 40.5207,54.399 39.3317,54.894" id="Fill-4" fill="#231F20"></path>
                <path d="M67.5954,45.6616 C63.4434,47.4636 59.1344,48.8636 54.7364,49.9206 C54.5344,43.1726 54.5104,36.3796 54.0474,29.6506 C53.9794,28.6526 53.7694,27.4716 52.7984,26.9456 C51.7204,26.3636 50.7064,27.0096 49.9334,27.7526 C47.3864,30.1996 45.0054,32.8486 42.5504,35.3896 C41.6564,36.3146 43.0684,37.7306 43.9644,36.8036 C45.9224,34.7776 47.8804,32.7526 49.8374,30.7276 C50.3034,30.2466 50.7964,29.5386 51.3484,29.1666 C51.9044,28.7906 51.9924,29.0386 52.0474,29.6506 C52.1774,31.1056 52.1464,32.5956 52.1954,34.0566 C52.3864,39.7676 52.5784,45.4786 52.7704,51.1896 C52.7924,51.8616 53.3894,52.2996 54.0354,52.1546 C59.0414,51.0336 63.9004,49.4296 68.6054,47.3886 C69.7834,46.8776 68.7654,45.1536 67.5954,45.6616" id="Fill-6" fill="#231F20"></path>
                <g id="Group-10" transform="translate(60.000000, 0.490500)">
                    <mask id="mask-6" fill="white">
                        <use xlink:href="#path-5"></use>
                    </mask>
                    <g id="Clip-9"></g>
                    <path d="M37.7614,26.0441 C32.4354,29.6041 27.1094,33.1641 21.7824,36.7251 C20.7954,24.8361 19.3314,12.9901 17.3704,1.2231 C17.2404,0.4401 16.1994,0.3151 15.6994,0.7811 C10.7774,5.3671 5.8534,9.9521 0.9294,14.5371 C-0.0136,15.4171 1.4024,16.8281 2.3434,15.9511 C6.8004,11.8011 11.2574,7.6501 15.7144,3.5001 C17.5974,15.1001 19.0174,26.7721 19.9424,38.4881 C19.9974,39.1901 20.7674,39.8051 21.4474,39.3521 C27.2214,35.4911 32.9954,31.6311 38.7714,27.7711 C39.8354,27.0591 38.8354,25.3261 37.7614,26.0441" id="Fill-8" fill="#231F20" mask="url(#mask-6)"></path>
                </g>
            </g>
        </g>
    </g>
</svg>

<svg width="500" height="600" xmlns="http://www.w3.org/2000/svg" xmlns:xlink="http://www.w3.org/1999/xlink"><defs><path id="a" d="M0 .454h182.161v197.653H0z"/><path id="c" d="M0 .15h15.05V15H0z"/><path id="e" d="M.619.51h38.606v38.997H.619z"/></defs><g fill="none" fill-rule="evenodd"><g transform="translate(169 58.546)"><mask id="b" fill="#fff"><use xlink:href="#a"/></mask><path d="M172.495 104.535a166.134 166.134 0 01-.88 4.533 4.565 4.565 0 00-.15.715c-.653 3.113-1.363 6.22-2.056 9.314-.384 1.707-.863 4-2.492 4.992-.929.565-3.585.36-3.359-1.235a1.023 1.023 0 00-.25-.841c.131-8.737-1.17-17.39-2.822-26.02.568-.086 1.087-.41 1.443-.944a9.54 9.54 0 01.212-.313 10.6 10.6 0 01.077-.102l.122-.148c.065-.076.133-.151.2-.226.324-.356.684-.663 1.041-.984l.008-.01c.002 0 .003 0 .005-.002.082-.058.163-.118.246-.174a10.696 10.696 0 011.508-.865c.044-.021.09-.043.136-.062.135-.061.092-.043-.13.052.09-.113.511-.195.64-.238a10.789 10.789 0 011.314-.347c.1-.02.2-.036.298-.054-.003-.001-.008 0-.009-.002.001 0 .007 0 .01.002.024-.004.048-.01.073-.013.287-.05.033.019-.056.017.064.008.25-.01.421-.03a5.22 5.22 0 011.663.884c3.562 2.9 3.515 7.99 2.787 12.1m-11.213 19.763a72.355 72.355 0 01-.425 4.813 4.567 4.567 0 00-.237 1.915c-.242 1.663-.579 3.31-.956 4.947a47.123 47.123 0 01-5.693 11.789.615.615 0 00-.025-.027c-2.854 3.262-6.217 6.097-9.69 8.699-6.52 4.885-13.28 9.474-20.046 14.006a664.006 664.006 0 01-12.112 7.92.987.987 0 00-.409.5c-1.325.828-2.692 1.579-4.148 2.168-5.437 2.197-11.212 1.196-16.55-.778-5.017-1.856-9.824-4.38-14.588-6.801-8.522-4.33-17.004-9.164-23.92-15.85-7.167-6.93-11.758-15.658-13.308-25.516-1.608-10.22-.254-20.7 1.146-30.86.668-4.842 1.371-9.704 1.9-14.58 4.797 2.555 9.912 3.123 13.706-2.78 1.774-2.76 2.925-5.86 3.617-9.093 2.744 1.8 5.757 2.758 9.073 1.854 3.22-.877 5.774-3.393 7.232-6.317 1.26-2.527 1.004-5.807 2.31-8.193 3.06 1.719 6.442 2.798 9.908 2.926 7.94.293 12.317-5.733 14.79-12.523 3.907 2.043 8.843 2.068 12.69-.2.25.629.536 1.242.86 1.84 1.491 4.483 5.443 8.04 10.013 9.386 2.99.88 6.142.729 8.985-.557.065-.03.133-.066.197-.097-.042 5.918 1.22 11.675 5.623 16.26 3.934 4.096 9.601 5.728 14.802 4.666l.047.244c.004.126.011.25.016.377.028.883.24 1.72.564 2.505.36 1.766.72 3.532 1.074 5.295 2.121 10.532 4.112 21.27 3.554 32.062m-58.766 66.836c-1.555 2.528-3.877 5.22-7.122 4.957-3.122-.254-4.815-3.378-6.049-5.964a.95.95 0 00.128-.48v-7.84c3.341 1.313 6.801 2.298 10.398 2.48.85.043 1.676.008 2.492-.062v6.416c0 .18.065.344.153.493m-66-67.791a.416.416 0 00-.132.089c-.085.093-.157.222-.147.353.003.038 0 .075-.003.113a.806.806 0 01-.029.107.74.74 0 01-.05.086 12.58 12.58 0 01-.114.116.522.522 0 00-.138.31l-.012-.002a.939.939 0 00-.91.018c-1.874 1.012-3.694-.704-4.836-2.065-1.344-1.603-2.269-3.577-3.218-5.425-1.98-3.86-3.703-8.162-3.096-12.583.475-3.46 2.47-7.194 6.102-8.083 2.961-.725 6.71.515 7.661 3.644a.92.92 0 00.762.67c-1.065 7.533-1.97 15.074-1.84 22.652M99.186 3.83a24.903 24.903 0 00-4.565-1.323c1.598.136 3.145.598 4.564 1.323m82.837 96.855c-.15-1.146-.474-2.216-.778-3.327-.395-1.438-.103-2.614.217-4.03 1.046-4.628-.444-9.534-3.867-12.812 3.085-7.248 1.283-16.171-4.568-21.53.052-1.364-.36-2.57-1.01-3.674a5.73 5.73 0 00-1.974-2.53 37.213 37.213 0 00-.88-.896 19.251 19.251 0 00-.478-.448c-.346-2.881-.709-5.818-1.382-8.6a23.75 23.75 0 00-.134-1.3c-.442-3.26-1.496-7.136-3.893-9.54-1.634-1.641-4.283-2.351-6.294-1.255-1.058-2.558-2.55-4.985-4.432-7.032-.977-1.535-2.234-2.88-3.873-3.892-2.35-1.45-5.077-1.596-7.519-.836-.484-3.513-2.808-6.705-6.26-7.962-3.984-1.452-8.647.266-11.083 3.63-2.258-2.875-4.825-5.711-8.376-6.871-2.74-.894-6.003-.628-8.306 1.126-.103-.098-.203-.202-.307-.296-.075-.07-.156-.127-.232-.194-2.468-4.545-7.215-7.731-12.47-7.95C88.486.229 83.22 3.529 80.55 8.374c-3.759-3.515-9.81-4.216-14.34-1.751-.593.323-1.149.709-1.67 1.136-.584.475-1.104 1.22-1.773 1.566-.938.483-1.832-.3-2.674-.683a10.732 10.732 0 00-2.453-.792c-3.222-.603-6.622.16-9.173 2.247-2.174 1.778-3.54 4.399-3.909 7.159a18.837 18.837 0 00-2.174 3.418c-4.202-4.243-12.313-3.768-15.45 1.63-.909 1.564-1.334 3.357-2.236 4.923-.397.69-.893 1.346-1.616 1.722-1.198.624-2.636.383-3.93.346-3.972-.116-7.005 2.28-8.276 6.003-1.252 3.664-.19 7.387 1.492 10.75a15.89 15.89 0 001.168 2.352c-5.719 2.089-8.208 10.013-5.279 15.21.042.473.106.942.196 1.405-4.894 1.737-8.644 6.51-8.445 11.87.2 5.425 4.307 10.075 9.434 11.405-4.889 5.755-2.98 14.634.672 20.69 1.198 1.987 2.711 3.676 4.205 5.439 1.807 2.133 2.71 4.359 3.41 7.038 1.162 4.446 3.234 8.324 6.836 11.276 3.827 3.137 8.672 4.915 13.64 4.694.04-.002.067-.021.104-.026 1.663 6.25 4.508 12.105 8.716 17.238 6.205 7.568 14.554 13.092 23.063 17.748 4.392 2.402 8.888 4.618 13.405 6.775 1.34.639 2.697 1.269 4.075 1.86a1 1 0 00-.095.437v7.819c-.268.288-.398.709-.188 1.156 1.622 3.447 3.855 7.358 8.11 7.657 4.174.293 7.215-3.145 9.13-6.414.265-.453.127-.88-.162-1.162v-6.568c3.465-.671 6.651-2.246 9.68-4.26-.05-.035-.09-.083-.138-.121a659.916 659.916 0 0020.876-13.926c6.284-4.371 12.823-8.671 18.317-14.043.388-.38.743-.793 1.117-1.187.241-.044.473-.173.65-.42.23-.322.446-.652.668-.98.024-.028.051-.052.075-.08l-.015-.007a48.833 48.833 0 005.45-10.787c.054.022.11.033.163.056.154-.593.284-1.19.42-1.787.053-.166.111-.33.162-.496a.958.958 0 00.032-.33c.006-.031.015-.063.022-.094.097.042.195.084.315.096 4.15.398 7.98-1.532 10.934-4.324 3.094-2.926 6.015-7.15 6.587-11.448.133-1.01.115-2.038-.125-3.033-.283-1.172-1.218-2.265-.908-3.506.255-1.018 1.083-1.918 1.58-2.828a16.014 16.014 0 001.331-3.27 16.11 16.11 0 00.466-6.486" fill="#231F20" mask="url(#b)"/></g><path d="M243.905 142.727a26.12 26.12 0 00-13.534 8.433c-.68.805.48 1.976 1.165 1.165a24.623 24.623 0 0112.806-8.01c1.028-.258.592-1.847-.437-1.588m63.049 3.665c-4.072-3.508-9.533-4.212-14.704-4.562-1.058-.072-1.054 1.575 0 1.646 4.688.318 9.835.89 13.54 4.08.8.69 1.97-.472 1.164-1.164m-19.018 14.176c1.297 4.363 5.65 7.644 10.256 7.401 4.58-.24 8.667-3.833 9.505-8.338.233-1.259-1.694-1.798-1.93-.533-.671 3.613-3.833 6.67-7.575 6.871-3.718.201-7.274-2.386-8.327-5.932-.366-1.232-2.296-.707-1.93.531m-45.949 10.782c4.209-.36 7.488-4.052 8.2-8.076.224-1.259-1.703-1.799-1.928-.532-.546 3.086-2.842 6.145-6.12 6.59-2.761.375-6.048-1.56-6.422-4.475-.07-.54-.41-.994-1-1-.487-.005-1.068.465-1 1 .504 3.938 4.332 6.83 8.27 6.493m36.936 15.76c-.085-.533-.75-.83-1.23-.698-.569.156-.784.695-.699 1.23.4 2.506-1.635 5.202-4.135 5.558-2.625.374-5.324-1.877-5.506-4.499-.09-1.278-2.09-1.287-2 0 .207 2.96 2.394 5.537 5.258 6.306 2.89.777 5.82-.647 7.365-3.132a6.895 6.895 0 00.947-4.765m-2.102 22.528a26.202 26.202 0 00-16.742.176c-1.207.423-.688 2.355.53 1.928a24.383 24.383 0 0115.68-.176c1.226.4 1.752-1.53.532-1.928" fill="#231F20"/><g transform="translate(321 218.49)"><mask id="d" fill="#fff"><use xlink:href="#c"/></mask><path d="M13.832 10.305l-5.373 1.884c.78-1.453 1.56-2.907 2.342-4.361l1.85-3.443c.523-.973 1.253-2.13.618-3.231-1.107-1.92-3.873-.582-5.388-.09L.693 3.402c-1.218.396-.697 2.328.533 1.927 2.03-.66 4.059-1.32 6.09-1.978.975-.317 1.948-.637 2.923-.951.304-.098.618-.213.939-.24.066-.004.266-.032.34.009a.114.114 0 00-.02.055c-.065.417-.44.904-.635 1.268l-.802 1.492-1.48 2.755-3.084 5.739c-.385.717.264 1.773 1.13 1.47 2.579-.906 5.158-1.81 7.737-2.714 1.207-.423.688-2.356-.532-1.928" fill="#231F20" mask="url(#d)"/></g><path d="M360.332 218.894l-8.696 3.623c.516-4.712.508-9.445-.08-14.161-.09-.731-.784-1.274-1.503-.863l-9.324 5.314c-1.118.637-.112 2.365 1.009 1.727l7.995-4.557c.45 4.606.385 9.258-.252 13.846-.09.644.434 1.56 1.23 1.229l10.153-4.229c1.17-.489.657-2.424-.532-1.929m28.263-9.232c-4.152 1.802-8.46 3.202-12.859 4.259-.202-6.748-.226-13.541-.689-20.27-.068-.998-.278-2.18-1.249-2.705-1.078-.582-2.092.064-2.865.807-2.547 2.447-4.928 5.096-7.383 7.637-.894.925.518 2.34 1.414 1.414l5.873-6.076c.466-.481.96-1.19 1.511-1.561.556-.376.644-.128.7.484.13 1.455.098 2.945.147 4.406l.575 17.133c.022.672.62 1.11 1.265.965a81.105 81.105 0 0014.57-4.766c1.178-.511.16-2.235-1.01-1.727" fill="#231F20"/><g transform="translate(381 164.49)"><mask id="f" fill="#fff"><use xlink:href="#e"/></mask><path d="M37.761 26.044L21.782 36.725A434.796 434.796 0 0017.37 1.223C17.24.44 16.2.315 15.7.781L.93 14.537c-.944.88.472 2.291 1.413 1.414l13.371-12.45a429.21 429.21 0 014.228 34.987c.055.702.825 1.317 1.505.864l17.324-11.58c1.064-.713.064-2.446-1.01-1.728" fill="#231F20" mask="url(#f)"/></g></g></svg>
